X:48
T:Phil Durkin's Favourite
Z: id:dc-hornpipe-61
M:C|
L:1/8
K:G Major
(3DEF|G2BG ABcA|defd gfdc|B2GB A2FA|GBAF DEFD|!
G2BG ABcA|defd gfdc|B2GB A2FA|G2GF G2:|!
(3Bcd|gfga gfdf|g2bg gfde|fefg afge|fde^c d=cAF|!
G2BG ABcA|defd gfdc|B2GB A2FA|G2GF G2:|!

